material/.icons/material/bag-carry-on-off.svg

<svg xmlns="http://www.w3.org/2000/svg" viewBox="0 0 24 24"><path d="M2.1 4.9l3.9 4V19c0 .5.2 1 .6 1.4.4.4.9.6 1.4.6V10.8l1 1V21h4.2c-.1-.4-.2-.8-.2-1 0-1.2.5-2 1.6-2.6l.8.8c-.9.3-1.3 1-1.3 1.9 0 .5.2 1 .6 1.4.3.3.8.5 1.3.5.9 0 1.6-.4 1.9-1.3l1.2 1.2 1.4-1.4-17-17-1.4 1.4M12 2c0 .5.2 1 .6 1.4s.9.6 1.4.6v3H9.8l6.2 6.2V2h-4z"/></svg>

<?xml version="1.0" encoding="UTF-8"?><!DOCTYPE svg PUBLIC "-//W3C//DTD SVG 1.1//EN" "http://www.w3.org/Graphics/SVG/1.1/DTD/svg11.dtd"><svg xmlns="http://www.w3.org/2000/svg" xmlns:xlink="http://www.w3.org/1999/xlink" version="1.1" id="mdi-bag-carry-on-off" width="24" height="24" viewBox="0 0 24 24"><path d="M2.1 4.9L6 8.9V19C6 19.5 6.2 20 6.6 20.4C7 20.8 7.5 21 8 21V10.8L9 11.8V21H13.2C13.1 20.6 13 20.2 13 20C13 18.8 13.5 18 14.6 17.4L15.4 18.2C14.5 18.5 14.1 19.2 14.1 20.1C14.1 20.6 14.3 21.1 14.7 21.5C15 21.8 15.5 22 16 22C16.9 22 17.6 21.6 17.9 20.7L19.1 21.9L20.5 20.5L3.5 3.5L2.1 4.9M12 2C12 2.5 12.2 3 12.6 3.4S13.5 4 14 4V7H9.8L16 13.2V2H12Z" /></svg>
